X: 10883
M: 2/4
L: 1/16
K: C
(ef) |\
gc'ge c2c2 | dcde c2G2 | cAG_B Acfa | agfe e2d2 |\
gc'ge c2c2 | dcde c2G2 | cdcB Aafd | c2B2c2 H|]
EGce gecG | AFAc fedc | BcAB G2 gf | efde c2 GF |\
EGce gecG | AFAc fedc | Bcde gfde | c2e2"^D.C."c2 |]
K: Cm
e2de c2de | f2ef d2ef | g2fg e2fg | f2e2d2G2 |\
e2de c2de | f2ef d2ef | gedc fdc=B | (d4 "^D.C."c2) |]


